packages/foundations/assets/icons/functional/images/notification/question_mark_circle_14.svg

<svg width="14" height="14" viewBox="0 0 14 14" fill="none" xmlns="http://www.w3.org/2000/svg">
<g clip-path="url(#clip0_187_208)">
<path fill-rule="evenodd" clip-rule="evenodd" d="M7.0003 1.39999C10.079 1.39999 12.6 3.9069 12.6 6.99635C12.6 10.0752 10.0936 12.6 7.00002 12.6C3.90539 12.6 1.40002 10.074 1.40002 6.9967C1.40002 3.91411 3.91316 1.39999 7.0003 1.39999ZM6.99974 2.79999C4.68589 2.79999 2.80688 4.67543 2.80688 6.99635C2.80688 9.30649 4.67126 11.2 7.00002 11.2C9.32983 11.2 11.1932 9.3053 11.1932 6.9967C11.1932 4.68278 9.32199 2.79999 6.99974 2.79999ZM6.74053 10.1483C7.13659 10.1483 7.4371 9.83415 7.4371 9.45167C7.4371 9.06926 7.13659 8.76875 6.74053 8.76875C6.3444 8.76875 6.04389 9.06926 6.04389 9.45167C6.04389 9.83415 6.3444 10.1483 6.74053 10.1483ZM6.04389 8.1405H7.4371V7.43021C7.4371 6.95393 8.66966 6.71292 8.66966 5.35429C8.66966 4.38423 7.90148 3.85167 6.91028 3.85167C6.28203 3.85167 5.59267 4.06636 5.29538 4.30674L5.77138 5.54217C6.07203 5.37557 6.45955 5.24488 6.7945 5.24488C7.18489 5.24488 7.28688 5.4224 7.28688 5.61959C7.28688 6.30783 6.04389 6.2449 6.04389 7.43021V8.1405Z" fill="#1A1C1F"/>
</g>
<defs>
<clipPath id="clip0_187_208">
<rect width="14" height="14" fill="white"/>
</clipPath>
</defs>
</svg>

<svg xmlns="http://www.w3.org/2000/svg" width="14" height="14" fill="none"><g clip-path="url(#a)"><path fill="#1A1C1F" fill-rule="evenodd" d="M7 1.4c3.079 0 5.6 2.507 5.6 5.596 0 3.08-2.506 5.604-5.6 5.604-3.095 0-5.6-2.526-5.6-5.603A5.61 5.61 0 0 1 7 1.4m0 1.4a4.194 4.194 0 0 0-4.193 4.196A4.197 4.197 0 0 0 7 11.2a4.197 4.197 0 0 0 4.193-4.203A4.194 4.194 0 0 0 7 2.8m-.26 7.348a.69.69 0 0 0 .697-.696.68.68 0 0 0-.696-.683.68.68 0 0 0-.697.683c0 .382.3.696.697.696M6.045 8.14h1.393v-.71c0-.476 1.233-.717 1.233-2.076 0-.97-.769-1.502-1.76-1.502-.628 0-1.317.214-1.615.455l.476 1.235c.301-.166.689-.297 1.024-.297.39 0 .492.177.492.375 0 .688-1.243.625-1.243 1.81z" clip-rule="evenodd"/></g><defs><clipPath id="a"><path fill="#fff" d="M0 0h14v14H0z"/></clipPath></defs></svg>
